svg/fluentui-system-icons/ic_fluent_text_indent_increase_ltr_20_regular.svg

<svg width="20" height="20" viewBox="0 0 20 20" fill="none" xmlns="http://www.w3.org/2000/svg">
<path d="M6 4.5C6 4.22386 6.22386 4 6.5 4H14.5C14.7761 4 15 4.22386 15 4.5C15 4.77614 14.7761 5 14.5 5H6.5C6.22386 5 6 4.77614 6 4.5ZM6 9.5C6 9.22386 6.22386 9 6.5 9H17.5C17.7761 9 18 9.22386 18 9.5C18 9.77614 17.7761 10 17.5 10H6.5C6.22386 10 6 9.77614 6 9.5ZM6.5 14C6.22386 14 6 14.2239 6 14.5C6 14.7761 6.22386 15 6.5 15H12.5C12.7761 15 13 14.7761 13 14.5C13 14.2239 12.7761 14 12.5 14H6.5ZM2.85355 7.73226C2.65829 7.537 2.34171 7.537 2.14645 7.73226C1.95118 7.92752 1.95118 8.24411 2.14645 8.43937L3.20711 9.50003L2.14645 10.5607C1.95118 10.756 1.95118 11.0725 2.14645 11.2678C2.34171 11.4631 2.65829 11.4631 2.85355 11.2678L4.26777 9.85358C4.46303 9.65832 4.46303 9.34174 4.26777 9.14648L2.85355 7.73226Z" fill="#212121"/>
</svg>

<svg xmlns="http://www.w3.org/2000/svg" width="20" height="20"><path d="M6 4.5a.5.5 0 0 1 .5-.5h8a.5.5 0 0 1 0 1h-8a.5.5 0 0 1-.5-.5Zm0 5a.5.5 0 0 1 .5-.5h11a.5.5 0 0 1 0 1h-11a.5.5 0 0 1-.5-.5Zm.5 4.5a.5.5 0 0 0 0 1h6a.5.5 0 0 0 0-1h-6ZM2.854 7.732a.5.5 0 1 0-.708.707L3.207 9.5l-1.06 1.06a.5.5 0 1 0 .707.708l1.414-1.414a.5.5 0 0 0 0-.708L2.854 7.732Z"/></svg>
